!!!OTL: 1561. Lied beim Flachsreffen.
!!!ODT: 1856
!!!ARE: Europa, Mitteleuropa, Deutschland, Westfalen, Soest
!!!SCT: E1561
!!!TXL: @@NDS
!!!YEM: Copyright 1995, estate of Helmut Schaffrath.
**kern	**text
*ICvox	*
*M3/4	*
*k[f#]	*
*G:	*
!LO:TX:a:t=Heiter.	!
!LO:TX:a:t=Aus der Gegend von Soeſt (Weſtfalen) 1856.	!
{4d	Es
=1	=1
4.g	bleis
8a	ſich
(8b	von
8cc)	der
=2	=2
4dd	Lin-
4b}	-ne
{8bq	.
8ee	eu-
8dd	-ne
=3	=3
4dd	Reu-
4dd	-ſe
4b	was
=4	=4
2a}	reuth.
{4d	Es
=5	=5
4.g	bleis
8a	ſich
(8b	von
8cc)	der
=6	=6
4dd	Lin-
4b}	-ne
{8bq	.
8ee	eu-
8dd	-ne
=7	=7
4dd	Reu-
4dd	-ſe
4b	was
=8	=8
2a}	reuth.
{8a	(Ma-
8b	-rie
=9	=9
4cc	Mei-
4a	-er)
8b/	hat
8a	'ne
=10	=10
4g	Kröu-
4d}	-ne
{4b	von
=11	=11
4cc	Gol-
4b	-de
4a	ſeu
=12	=12
2g}	reuth.
==	==
!!!AGN: Staende -, Bauern - Lied, Flachsbrechen, bei der Arbeit
!!!ONB: ESAC (Essen Associative Code) Database: ERK3
!!!AMT: simple triple
!!!AIN: vox
!!!EED: Helmut Schaffrath
!!!EEV: 1.0
!!!GTL: Staendelieder (Berufslieder). 6. Bauernlieder (von und gegen Bauern).
!!!URL-scan: https://rosdok.uni-rostock.de/mcrviewer/recordIdentifier/rosdok_ppn745177999/iview2/phys_0401.iview2?x=-128.77276441889285&y=98.43105505569838&scale=0.5870222003877487&rotation=0&layout=singlePageLayout
!!!ENC: Anna Maria Matuszewska
!!!EEV: 2025/03/01
*-	*-
